docs/.gitbook/assets/icon-camera-16@light.svg

<svg width="32" height="32" viewBox="0 0 16 16" fill="none" xmlns="http://www.w3.org/2000/svg">
<rect x="0" y="0" width="16" height="16" fill="#fff"/>
<path fill-rule="evenodd" clip-rule="evenodd" d="M6.36803 3.5C6.27334 3.5 6.18678 3.5535 6.14443 3.6382L5.69721 4.53262C5.40078 5.1255 4.79482 5.5 4.13197 5.5H3.75C3.05964 5.5 2.5 6.05964 2.5 6.75V11.25C2.5 11.9404 3.05964 12.5 3.75 12.5H12.25C12.9404 12.5 13.5 11.9404 13.5 11.25V6.75C13.5 6.05964 12.9404 5.5 12.25 5.5H11.868C11.2052 5.5 10.5992 5.1255 10.3028 4.53262L9.85557 3.6382C9.81322 3.5535 9.72666 3.5 9.63197 3.5H6.36803ZM4.80279 2.96738C5.09922 2.3745 5.70518 2 6.36803 2H9.63197C10.2948 2 10.9008 2.3745 11.1972 2.96738L11.6444 3.8618L10.9736 4.19721L11.6444 3.8618C11.6868 3.9465 11.7733 4 11.868 4H12.25C13.7688 4 15 5.23122 15 6.75V11.25C15 12.7688 13.7688 14 12.25 14H3.75C2.23122 14 1 12.7688 1 11.25V6.75C1 5.23122 2.23122 4 3.75 4H4.13197C4.22666 4 4.31322 3.9465 4.35557 3.8618L4.80279 2.96738L5.47361 3.30279L4.80279 2.96738ZM8 7C7.17157 7 6.5 7.67157 6.5 8.5C6.5 9.32843 7.17157 10 8 10C8.82843 10 9.5 9.32843 9.5 8.5C9.5 7.67157 8.82843 7 8 7ZM5 8.5C5 6.84315 6.34315 5.5 8 5.5C9.65685 5.5 11 6.84315 11 8.5C11 10.1569 9.65685 11.5 8 11.5C6.34315 11.5 5 10.1569 5 8.5Z" fill="#000"/>
</svg>

<svg xmlns="http://www.w3.org/2000/svg" width="32" height="32" fill="none" viewBox="0 0 16 16"><path fill="#fff" d="M0 0h16v16H0z"/><path fill="#000" fill-rule="evenodd" d="M6.368 3.5a.25.25 0 0 0-.224.138l-.447.895a1.75 1.75 0 0 1-1.565.967H3.75c-.69 0-1.25.56-1.25 1.25v4.5c0 .69.56 1.25 1.25 1.25h8.5c.69 0 1.25-.56 1.25-1.25v-4.5c0-.69-.56-1.25-1.25-1.25h-.382a1.75 1.75 0 0 1-1.565-.967l-.447-.895a.25.25 0 0 0-.224-.138zm-1.565-.533A1.75 1.75 0 0 1 6.368 2h3.264a1.75 1.75 0 0 1 1.565.967l.447.895-.67.335.67-.335a.25.25 0 0 0 .224.138h.382A2.75 2.75 0 0 1 15 6.75v4.5A2.75 2.75 0 0 1 12.25 14h-8.5A2.75 2.75 0 0 1 1 11.25v-4.5A2.75 2.75 0 0 1 3.75 4h.382a.25.25 0 0 0 .224-.138zl.67.336zM8 7a1.5 1.5 0 1 0 0 3 1.5 1.5 0 0 0 0-3M5 8.5a3 3 0 1 1 6 0 3 3 0 0 1-6 0" clip-rule="evenodd"/></svg>
